img/ellipses_lang.svg

<svg width="306" height="48" viewBox="0 0 306 48" fill="none" xmlns="http://www.w3.org/2000/svg">
<path d="M35.3689 10.5652C36.9094 12.1057 37.2272 14.9579 35.9852 18.684C34.7643 22.3466 32.1171 26.5449 28.2979 30.3642C24.4786 34.1835 20.2803 36.8307 16.6177 38.0515C12.8916 39.2936 10.0394 38.9757 8.49888 37.4352C6.95838 35.8948 6.64056 33.0425 7.88259 29.3164C9.10347 25.6538 11.7507 21.4555 15.5699 17.6363C19.3892 13.817 23.5875 11.1698 27.2501 9.9489C30.9762 8.70688 33.8284 9.02469 35.3689 10.5652Z" fill="#00E016" stroke="#00E016" stroke-width="2"/>
<path d="M87.7954 10.5652C89.3359 12.1057 89.6538 14.9579 88.4117 18.684C87.1909 22.3466 84.5437 26.5449 80.7244 30.3642C76.9051 34.1835 72.7068 36.8307 69.0442 38.0515C65.3181 39.2936 62.4659 38.9757 60.9254 37.4352C59.3849 35.8948 59.0671 33.0425 60.3091 29.3164C61.53 25.6538 64.1772 21.4555 67.9965 17.6363C71.8157 13.817 76.014 11.1698 79.6766 9.9489C83.4027 8.70688 86.2549 9.02469 87.7954 10.5652Z" fill="#00E016" stroke="#00E016" stroke-width="2"/>
<path d="M140.222 10.5652C141.762 12.1057 142.08 14.9579 140.838 18.684C139.617 22.3466 136.97 26.5449 133.151 30.3642C129.331 34.1835 125.133 36.8307 121.47 38.0515C117.744 39.2936 114.892 38.9757 113.352 37.4352C111.811 35.8948 111.493 33.0425 112.735 29.3164C113.956 25.6538 116.603 21.4555 120.423 17.6363C124.242 13.817 128.44 11.1698 132.103 9.9489C135.829 8.70688 138.681 9.02469 140.222 10.5652Z" fill="#00E016" stroke="#00E016" stroke-width="2"/>
<path d="M192.648 10.5652C194.189 12.1057 194.507 14.9579 193.265 18.684C192.044 22.3466 189.396 26.5449 185.577 30.3642C181.758 34.1835 177.56 36.8307 173.897 38.0515C170.171 39.2936 167.319 38.9757 165.778 37.4352C164.238 35.8948 163.92 33.0425 165.162 29.3164C166.383 25.6538 169.03 21.4555 172.849 17.6363C176.669 13.817 180.867 11.1698 184.529 9.9489C188.256 8.70688 191.108 9.02469 192.648 10.5652Z" fill="#00E016" stroke="#00E016" stroke-width="2"/>
<path d="M245.075 10.5652C246.615 12.1057 246.933 14.9579 245.691 18.684C244.47 22.3466 241.823 26.5449 238.004 30.3642C234.184 34.1835 229.986 36.8307 226.323 38.0515C222.597 39.2936 219.745 38.9757 218.205 37.4352C216.664 35.8948 216.346 33.0425 217.588 29.3164C218.809 25.6538 221.456 21.4555 225.276 17.6363C229.095 13.817 233.293 11.1698 236.956 9.9489C240.682 8.70688 243.534 9.02469 245.075 10.5652Z" fill="#00E016" stroke="#00E016" stroke-width="2"/>
<path d="M297.501 10.5652C299.042 12.1057 299.359 14.9579 298.117 18.684C296.896 22.3466 294.249 26.5449 290.43 30.3642C286.611 34.1835 282.412 36.8307 278.75 38.0515C275.024 39.2936 272.171 38.9757 270.631 37.4352C269.09 35.8948 268.773 33.0425 270.015 29.3164C271.236 25.6538 273.883 21.4555 277.702 17.6363C281.521 13.817 285.72 11.1698 289.382 9.9489C293.108 8.70688 295.961 9.02469 297.501 10.5652Z" stroke="#00E016" stroke-width="2"/>
</svg>

<?xml version="1.0"?>
<svg width="306" height="48" xmlns="http://www.w3.org/2000/svg" xmlns:svg="http://www.w3.org/2000/svg">
 <g class="layer">
  <title>Layer 1</title>
  <path d="m35.37,10.57c1.54,1.54 1.86,4.39 0.62,8.11c-1.23,3.67 -3.87,7.86 -7.69,11.68c-3.82,3.82 -8.02,6.47 -11.68,7.69c-3.73,1.24 -6.58,0.93 -8.12,-0.61c-1.54,-1.55 -1.86,-4.4 -0.62,-8.12c1.22,-3.67 3.87,-7.86 7.69,-11.68c3.82,-3.82 8.02,-6.47 11.68,-7.69c3.73,-1.24 6.58,-0.93 8.12,0.62z" fill="#00E016" id="svg_1" stroke="#00E016" stroke-width="2"/>
  <path d="m87.8,10.57c1.54,1.54 1.85,4.39 0.61,8.11c-1.22,3.67 -3.87,7.86 -7.69,11.68c-3.81,3.82 -8.01,6.47 -11.68,7.69c-3.72,1.24 -6.57,0.93 -8.11,-0.61c-1.55,-1.55 -1.86,-4.4 -0.62,-8.12c1.22,-3.67 3.87,-7.86 7.69,-11.68c3.82,-3.82 8.01,-6.47 11.68,-7.69c3.72,-1.24 6.57,-0.93 8.12,0.62z" fill="#00E016" id="svg_2" stroke="#00E016" stroke-width="2"/>
  <path d="m140.22,10.57c1.54,1.54 1.86,4.39 0.62,8.11c-1.22,3.67 -3.87,7.86 -7.69,11.68c-3.82,3.82 -8.02,6.47 -11.68,7.69c-3.73,1.24 -6.58,0.93 -8.12,-0.61c-1.54,-1.55 -1.86,-4.4 -0.62,-8.12c1.23,-3.67 3.87,-7.86 7.69,-11.68c3.82,-3.82 8.02,-6.47 11.68,-7.69c3.73,-1.24 6.58,-0.93 8.12,0.62z" fill="#00E016" id="svg_3" stroke="#00E016" stroke-width="2"/>
  <path d="m192.65,10.57c1.54,1.54 1.86,4.39 0.61,8.11c-1.22,3.67 -3.86,7.86 -7.68,11.68c-3.82,3.82 -8.02,6.47 -11.68,7.69c-3.73,1.24 -6.58,0.93 -8.12,-0.61c-1.54,-1.55 -1.86,-4.4 -0.62,-8.12c1.22,-3.67 3.87,-7.86 7.69,-11.68c3.82,-3.82 8.02,-6.47 11.68,-7.69c3.73,-1.24 6.58,-0.93 8.12,0.62z" fill="#00E016" id="svg_4" stroke="#00E016" stroke-width="2"/>
  <path d="m245.07,10.57c1.55,1.54 1.86,4.39 0.62,8.11c-1.22,3.67 -3.87,7.86 -7.69,11.68c-3.82,3.82 -8.01,6.47 -11.68,7.69c-3.72,1.24 -6.57,0.93 -8.11,-0.61c-1.55,-1.55 -1.86,-4.4 -0.62,-8.12c1.22,-3.67 3.87,-7.86 7.69,-11.68c3.81,-3.82 8.01,-6.47 11.68,-7.69c3.72,-1.24 6.57,-0.93 8.11,0.62z" fill="#00E016" id="svg_5" stroke="#00E016" stroke-width="2"/>
  <path d="m297.5,10.57c1.54,1.54 1.86,4.39 0.62,8.11c-1.22,3.67 -3.87,7.86 -7.69,11.68c-3.82,3.82 -8.02,6.47 -11.68,7.69c-3.73,1.24 -6.58,0.93 -8.12,-0.61c-1.54,-1.55 -1.86,-4.4 -0.62,-8.12c1.23,-3.67 3.87,-7.86 7.69,-11.68c3.82,-3.82 8.02,-6.47 11.68,-7.69c3.73,-1.24 6.58,-0.93 8.12,0.62z" fill="#00e000" id="svg_6" stroke="#00E016" stroke-width="2"/>
 </g>
</svg>
